X:7834
T:Song from Austria
C:anon.
O:Austria
Z:Transcribed by Frank Nordberg - http://www.musicaviva.com
F:http://abc.musicaviva.com/tunes/austria/song-from-austria01/song-from-austria01-1.abc
M:3/4
L:1/4
K:F
F/G/|AAB/A/|GGG/A/|BBc/B/|A2A/B/|
ccf/d/|ccF/G/|AAG|F2|]
W:
W:
W:  From Musica Viva - http://www.musicaviva.com
W:  the Internet center for free sheet music downloads.

